X: 2
T: All Those Endearing Young Charms
R: waltz
M: 3/4
L: 1/8
K: Dmaj
F/E/ | D>ED DFA | B3-B2 c/d/ | A>FD DEF | E3-E2F/E/ | D>ED DFA | B3-B2 c/d/ | AdF E>DE | D3-D2 A | A>Bc d>cd | B3-B2 c/d/ | AFD DEF | E3-E2F/E/ | D>ED DFA | B3-B2 c/d/ | AdF E>DE | D3-D2 |]


Tune 6788	Setting 6788

